img/features/runs-on-js.svg

<svg xmlns="http://www.w3.org/2000/svg" width="30" height="32" viewBox="0 0 30 32" fill="none">
    <path
        d="M26.6667 25.3333V13.3333C26.6667 12.9797 26.5262 12.6406 26.2761 12.3905C26.0261 12.1405 25.687 12 25.3333 12H1.33333C0.979711 12 0.640573 12.1405 0.390524 12.3905C0.140476 12.6406 0 12.9797 0 13.3333L0 25.3333C0 25.687 0.140476 26.0261 0.390524 26.2761C0.640573 26.5262 0.979711 26.6667 1.33333 26.6667H25.3333C25.687 26.6667 26.0261 26.5262 26.2761 26.2761C26.5262 26.0261 26.6667 25.687 26.6667 25.3333ZM12.16 21.3333C12.16 21.7045 12.0869 22.0721 11.9448 22.4151C11.8028 22.758 11.5946 23.0696 11.3321 23.3321C11.0696 23.5946 10.758 23.8028 10.4151 23.9448C10.0721 24.0869 9.70454 24.16 9.33333 24.16C8.96213 24.16 8.59456 24.0869 8.25161 23.9448C7.90867 23.8028 7.59706 23.5946 7.33458 23.3321C7.0721 23.0696 6.86389 22.758 6.72183 22.4151C6.57978 22.0721 6.50667 21.7045 6.50667 21.3333C6.50667 21.1141 6.59376 20.9038 6.74879 20.7488C6.90382 20.5938 7.11409 20.5067 7.33333 20.5067C7.55258 20.5067 7.76284 20.5938 7.91787 20.7488C8.0729 20.9038 8.16 21.1141 8.16 21.3333C8.16 21.6445 8.28362 21.943 8.50366 22.163C8.7237 22.383 9.02215 22.5067 9.33333 22.5067C9.64452 22.5067 9.94296 22.383 10.163 22.163C10.383 21.943 10.5067 21.6445 10.5067 21.3333V15.3333C10.5067 15.1141 10.5938 14.9038 10.7488 14.7488C10.9038 14.5938 11.1141 14.5067 11.3333 14.5067C11.5526 14.5067 11.7628 14.5938 11.9179 14.7488C12.0729 14.9038 12.16 15.1141 12.16 15.3333V21.3333ZM15.24 17.8267L17.6933 19.4533C18.1464 19.7639 18.4888 20.2106 18.6711 20.7287C18.8533 21.2468 18.8659 21.8096 18.7069 22.3353C18.548 22.8611 18.2259 23.3226 17.7871 23.6531C17.3484 23.9835 16.8159 24.1657 16.2667 24.1733H14C13.7971 24.1476 13.6106 24.0488 13.4754 23.8954C13.3402 23.742 13.2656 23.5445 13.2656 23.34C13.2656 23.1355 13.3402 22.938 13.4754 22.7846C13.6106 22.6312 13.7971 22.5324 14 22.5067H16.2667C16.462 22.5064 16.6521 22.4431 16.8086 22.3261C16.965 22.2091 17.0795 22.0447 17.135 21.8573C17.1904 21.67 17.1839 21.4698 17.1163 21.2864C17.0487 21.1031 16.9238 20.9465 16.76 20.84L14.3067 19.2133C13.9566 18.9755 13.6701 18.6555 13.4725 18.2812C13.2749 17.9069 13.1722 17.4899 13.1733 17.0667C13.1733 16.3877 13.443 15.7366 13.9231 15.2565C14.4032 14.7764 15.0544 14.5067 15.7333 14.5067H18C18.2029 14.5324 18.3894 14.6312 18.5246 14.7846C18.6598 14.938 18.7344 15.1355 18.7344 15.34C18.7344 15.5445 18.6598 15.742 18.5246 15.8954C18.3894 16.0488 18.2029 16.1476 18 16.1733H15.7333C15.4952 16.1733 15.2665 16.267 15.0969 16.4342C14.9272 16.6013 14.8302 16.8285 14.8267 17.0667C14.828 17.2175 14.8663 17.3657 14.9384 17.4983C15.0105 17.6308 15.1141 17.7436 15.24 17.8267Z"
        fill="#000000"/>
    <path
        d="M29.28 7.61333L22.0533 0.386667C21.805 0.140341 21.4698 0.00147283 21.12 0L5.66667 0C4.95942 0 4.28115 0.280952 3.78105 0.781049C3.28095 1.28115 3 1.95942 3 2.66667V10.3333C3 10.4217 3.03512 10.5065 3.09763 10.569C3.16014 10.6315 3.24493 10.6667 3.33333 10.6667H5.33333C5.42174 10.6667 5.50652 10.6315 5.56904 10.569C5.63155 10.5065 5.66667 10.4217 5.66667 10.3333V3.33333C5.66667 3.15652 5.7369 2.98695 5.86193 2.86193C5.98695 2.7369 6.15652 2.66667 6.33333 2.66667H20C20.0884 2.66667 20.1732 2.70179 20.2357 2.7643C20.2982 2.82681 20.3333 2.91159 20.3333 3V6.66667C20.3333 7.37391 20.6143 8.05219 21.1144 8.55229C21.6145 9.05238 22.2928 9.33333 23 9.33333H26.6667C26.7551 9.33333 26.8399 9.36845 26.9024 9.43096C26.9649 9.49348 27 9.57826 27 9.66667V28.6667C27 28.8435 26.9298 29.013 26.8047 29.1381C26.6797 29.2631 26.5101 29.3333 26.3333 29.3333H6C5.91159 29.3333 5.82681 29.2982 5.7643 29.2357C5.70179 29.1732 5.66667 29.0884 5.66667 29V28.3333C5.66667 28.2449 5.63155 28.1601 5.56904 28.0976C5.50652 28.0351 5.42174 28 5.33333 28H3.33333C3.24493 28 3.16014 28.0351 3.09763 28.0976C3.03512 28.1601 3 28.2449 3 28.3333V29.3333C3 30.0406 3.28095 30.7189 3.78105 31.219C4.28115 31.719 4.95942 32 5.66667 32H27C27.7072 32 28.3855 31.719 28.8856 31.219C29.3857 30.7189 29.6667 30.0406 29.6667 29.3333V8.54667C29.6652 8.19688 29.5263 7.86168 29.28 7.61333Z"
        fill="#000000"/>
</svg>

<svg xmlns="http://www.w3.org/2000/svg" width="30" height="32" fill="none">
    <path d="M26.667 25.333v-12A1.333 1.333 0 0 0 25.333 12h-24A1.334 1.334 0 0 0 0 13.333v12a1.333 1.333 0 0 0 1.333 1.334h24a1.333 1.333 0 0 0 1.334-1.334Zm-14.507-4a2.826 2.826 0 1 1-5.653 0 .827.827 0 0 1 1.653 0 1.173 1.173 0 1 0 2.347 0v-6a.827.827 0 0 1 1.653 0v6Zm3.08-3.506 2.453 1.626a2.587 2.587 0 0 1-1.426 4.72H14a.84.84 0 0 1 0-1.666h2.267a.907.907 0 0 0 .493-1.667l-2.453-1.627a2.587 2.587 0 0 1-1.134-2.146 2.56 2.56 0 0 1 2.56-2.56H18a.84.84 0 0 1 0 1.666h-2.267a.907.907 0 0 0-.906.894.92.92 0 0 0 .413.76Z" fill="#000"/>
    <path d="M29.28 7.613 22.053.387A1.333 1.333 0 0 0 21.12 0H5.667A2.667 2.667 0 0 0 3 2.667v7.666a.333.333 0 0 0 .333.334h2a.333.333 0 0 0 .334-.334v-7a.667.667 0 0 1 .666-.666H20a.333.333 0 0 1 .333.333v3.667A2.667 2.667 0 0 0 23 9.333h3.667a.333.333 0 0 1 .333.334v19a.667.667 0 0 1-.667.666H6A.333.333 0 0 1 5.667 29v-.667A.333.333 0 0 0 5.333 28h-2a.333.333 0 0 0-.333.333v1A2.667 2.667 0 0 0 5.667 32H27a2.667 2.667 0 0 0 2.667-2.667V8.547a1.334 1.334 0 0 0-.387-.934Z" fill="#000"/>
</svg>
